images/button-images/sc2_Y.svg

<?xml version='1.0' encoding='utf-8'?>
<svg xmlns="http://www.w3.org/2000/svg" viewBox="0 0 48.2869 45.6526" width="48.2869" height="45.6526"><g id="glyph"><g id="button"><g transform="scale(0.5) translate(-1106.64,-145.086)"><path d="M 1157.0573 145.3077 C 1143.6944 145.0861 1129.6818 151.2739 1121.3131 161.4874 C 1106.6397 179.3955 1107.9327 206.1537 1124.2604 222.4815 C 1129.8213 228.0423 1139.3390 233.3022 1146.5924 234.8233 C 1154.0685 236.3912 1165.5423 235.2693 1173.1451 232.2257 C 1190.8076 225.1549 1203.2134 204.9049 1201.1354 186.5382 C 1198.7741 165.6670 1183.1423 149.0899 1162.7252 145.8019 C 1160.8611 145.5016 1158.9662 145.3394 1157.0573 145.3077 Z M 1157.1998 150.1222 C 1158.6984 150.1901 1160.1816 150.3573 1161.6373 150.6280 C 1170.6524 152.3045 1177.9488 156.0840 1184.1569 162.2921 C 1196.2377 174.3729 1199.4660 192.3732 1192.3151 207.7765 C 1191.1457 210.2954 1187.4681 215.0785 1184.1412 218.4054 C 1177.9361 224.6105 1171.9377 228.0750 1164.3834 229.8175 C 1151.4891 232.7918 1137.5550 228.4778 1127.7350 218.4698 C 1112.0826 202.5172 1112.0883 177.7992 1127.7490 161.8898 C 1135.4739 154.0420 1146.7100 149.6470 1157.2001 150.1222 Z M 1138.4284 169.8565 L 1140.3795 173.1065 C 1152.8323 193.8481 1152.5924 193.2712 1152.5924 202.3878 L 1152.5924 210.8565 L 1156.0924 210.8565 L 1159.5924 210.8565 L 1159.5924 202.2511 L 1159.5924 193.6456 L 1166.3424 182.5265 C 1170.0549 176.4112 1173.2411 171.0583 1173.4244 170.6319 C 1173.6078 170.2054 1172.0060 169.8565 1169.8639 169.8565 C 1166.0112 169.8565 1165.9171 169.9503 1161.1862 178.4464 C 1155.7657 188.1810 1156.6591 188.3289 1150.1608 176.6065 C 1146.5117 170.0239 1146.3208 169.8565 1142.4244 169.8565 Z" style="fill:#000000" /></g></g></g></svg>

<svg xmlns="http://www.w3.org/2000/svg" width="48.287" height="45.653" viewBox="0 0 48.287 45.653"><g id="glyph"><g id="button"><g transform="scale(0.5) translate(-1106.64,-145.086)"><path d="M1157.057 145.308c-13.363-.222-27.375 5.966-35.744 16.18-14.673 17.908-13.38 44.666 2.947 60.994 5.561 5.56 15.079 10.82 22.332 12.341 7.476 1.568 18.95.446 26.553-2.597 17.663-7.071 30.068-27.321 27.99-45.688-2.36-20.871-17.993-37.448-38.41-40.736a40 40 0 0 0-5.668-.494m.143 4.814a32 32 0 0 1 4.437.506c9.015 1.677 16.312 5.456 22.52 11.664 12.08 12.08 15.309 30.081 8.158 45.485-1.17 2.518-4.847 7.302-8.174 10.628-6.205 6.206-12.203 9.67-19.758 11.412-12.894 2.975-26.828-1.34-36.648-11.347-15.652-15.953-15.647-40.67.014-56.58 7.725-7.848 18.961-12.243 29.451-11.768m-18.772 19.734 1.951 3.25c12.453 20.742 12.213 20.165 12.213 29.282v8.469h7v-17.211l6.75-11.12c3.713-6.115 6.9-11.468 7.082-11.894.184-.427-1.418-.775-3.56-.775-3.853 0-3.947.093-8.678 8.59-5.42 9.734-4.527 9.882-11.025-1.84-3.65-6.583-3.84-6.75-7.737-6.75Z" style="fill:#000"/></g></g></g></svg>
